humanity-icon-theme/Humanity/mimes/128/text-html.svg

<?xml version="1.0" encoding="UTF-8" standalone="no"?>
<!-- Created with Inkscape (http://www.inkscape.org/) -->

<svg
   xmlns:dc="http://purl.org/dc/elements/1.1/"
   xmlns:cc="http://creativecommons.org/ns#"
   xmlns:rdf="http://www.w3.org/1999/02/22-rdf-syntax-ns#"
   xmlns:svg="http://www.w3.org/2000/svg"
   xmlns="http://www.w3.org/2000/svg"
   xmlns:xlink="http://www.w3.org/1999/xlink"
   xmlns:sodipodi="http://sodipodi.sourceforge.net/DTD/sodipodi-0.dtd"
   xmlns:inkscape="http://www.inkscape.org/namespaces/inkscape"
   width="128"
   height="128"
   id="svg3099"
   version="1.1"
   inkscape:version="0.47 r22583"
   sodipodi:docname="text-html.svg">
  <defs
     id="defs3101">
    <linearGradient
       x1="32.892288"
       y1="8.0590115"
       x2="36.358372"
       y2="5.4565363"
       id="linearGradient2455"
       xlink:href="#linearGradient8589"
       gradientUnits="userSpaceOnUse"
       gradientTransform="matrix(2.6605294,0,0,2.7751643,0.7455328,-67.566236)" />
    <linearGradient
       id="linearGradient8589">
      <stop
         id="stop8591"
         style="stop-color:#fefefe;stop-opacity:1"
         offset="0" />
      <stop
         id="stop8593"
         style="stop-color:#cbcbcb;stop-opacity:1"
         offset="1" />
    </linearGradient>
    <linearGradient
       x1="24"
       y1="1.9999999"
       x2="24"
       y2="46.01725"
       id="linearGradient2459"
       xlink:href="#linearGradient3211"
       gradientUnits="userSpaceOnUse"
       gradientTransform="matrix(2.7575715,0,0,2.6744155,-2.1817192,-68.185973)" />
    <linearGradient
       id="linearGradient3211">
      <stop
         id="stop3213"
         style="stop-color:#ffffff;stop-opacity:1"
         offset="0" />
      <stop
         id="stop3215"
         style="stop-color:#ffffff;stop-opacity:0"
         offset="1" />
    </linearGradient>
    <radialGradient
       cx="102"
       cy="112.3047"
       r="139.55859"
       id="radialGradient2462"
       xlink:href="#XMLID_8_"
       gradientUnits="userSpaceOnUse"
       gradientTransform="matrix(0.9787237,0,0,-1.0535153,1.3617008,63.48164)" />
    <radialGradient
       cx="102"
       cy="112.3047"
       r="139.55859"
       id="XMLID_8_"
       gradientUnits="userSpaceOnUse">
      <stop
         id="stop41"
         style="stop-color:#b7b8b9;stop-opacity:1"
         offset="0" />
      <stop
         id="stop47"
         style="stop-color:#ececec;stop-opacity:1"
         offset="0.18851049" />
      <stop
         id="stop49"
         style="stop-color:#fafafa;stop-opacity:0"
         offset="0.25718147" />
      <stop
         id="stop51"
         style="stop-color:#ffffff;stop-opacity:0"
         offset="0.30111277" />
      <stop
         id="stop53"
         style="stop-color:#fafafa;stop-opacity:0"
         offset="0.53130001" />
      <stop
         id="stop55"
         style="stop-color:#ebecec;stop-opacity:0"
         offset="0.84490001" />
      <stop
         id="stop57"
         style="stop-color:#e1e2e3;stop-opacity:0"
         offset="1" />
    </radialGradient>
    <linearGradient
       x1="25.132275"
       y1="0.98520643"
       x2="25.132275"
       y2="47.013336"
       id="linearGradient2465"
       xlink:href="#linearGradient3600"
       gradientUnits="userSpaceOnUse"
       gradientTransform="matrix(2.657139,0,0,2.5422197,0.2286608,-68.913275)" />
    <linearGradient
       id="linearGradient3600">
      <stop
         id="stop3602"
         style="stop-color:#f4f4f4;stop-opacity:1"
         offset="0" />
      <stop
         id="stop3604"
         style="stop-color:#dbdbdb;stop-opacity:1"
         offset="1" />
    </linearGradient>
    <linearGradient
       x1="-51.786404"
       y1="50.786446"
       x2="-51.786404"
       y2="2.9062471"
       id="linearGradient2467"
       xlink:href="#linearGradient3104"
       gradientUnits="userSpaceOnUse"
       gradientTransform="matrix(2.1456312,0,0,2.3791388,158.0899,-71.746527)" />
    <linearGradient
       id="linearGradient3104">
      <stop
         id="stop3106"
         style="stop-color:#aaaaaa;stop-opacity:1"
         offset="0" />
      <stop
         id="stop3108"
         style="stop-color:#c8c8c8;stop-opacity:1"
         offset="1" />
    </linearGradient>
    <linearGradient
       x1="302.85715"
       y1="366.64789"
       x2="302.85715"
       y2="609.50507"
       id="linearGradient2483"
       xlink:href="#linearGradient5048"
       gradientUnits="userSpaceOnUse"
       gradientTransform="matrix(0.1725148,0,0,0.03920058,0.6482238,98.773724)" />
    <linearGradient
       id="linearGradient5048">
      <stop
         id="stop5050"
         style="stop-color:#000000;stop-opacity:0"
         offset="0" />
      <stop
         id="stop5056"
         style="stop-color:#000000;stop-opacity:1"
         offset="0.5" />
      <stop
         id="stop5052"
         style="stop-color:#000000;stop-opacity:0"
         offset="1" />
    </linearGradient>
    <radialGradient
       cx="605.71429"
       cy="486.64789"
       r="117.14286"
       fx="605.71429"
       fy="486.64789"
       id="radialGradient2485"
       xlink:href="#linearGradient5060"
       gradientUnits="userSpaceOnUse"
       gradientTransform="matrix(-0.05903807,0,0,0.03920058,56.929907,98.773804)" />
    <linearGradient
       id="linearGradient5060">
      <stop
         id="stop5062"
         style="stop-color:#000000;stop-opacity:1"
         offset="0" />
      <stop
         id="stop5064"
         style="stop-color:#000000;stop-opacity:0"
         offset="1" />
    </linearGradient>
    <radialGradient
       r="117.14286"
       fy="486.64789"
       fx="605.71429"
       cy="486.64789"
       cx="605.71429"
       gradientTransform="matrix(0.05903808,0,0,0.03920058,69.07008,98.773804)"
       gradientUnits="userSpaceOnUse"
       id="radialGradient3097"
       xlink:href="#linearGradient5060"
       inkscape:collect="always" />
  </defs>
  <sodipodi:namedview
     id="base"
     pagecolor="#ffffff"
     bordercolor="#666666"
     borderopacity="1.0"
     inkscape:pageopacity="0.0"
     inkscape:pageshadow="2"
     inkscape:zoom="5.5"
     inkscape:cx="32"
     inkscape:cy="32"
     inkscape:current-layer="layer1"
     showgrid="true"
     inkscape:document-units="px"
     inkscape:grid-bbox="true"
     inkscape:window-width="611"
     inkscape:window-height="482"
     inkscape:window-x="417"
     inkscape:window-y="165"
     inkscape:window-maximized="0" />
  <metadata
     id="metadata3104">
    <rdf:RDF>
      <cc:Work
         rdf:about="">
        <dc:format>image/svg+xml</dc:format>
        <dc:type
           rdf:resource="http://purl.org/dc/dcmitype/StillImage" />
        <dc:title />
      </cc:Work>
    </rdf:RDF>
  </metadata>
  <g
     id="layer1"
     inkscape:label="Layer 1"
     inkscape:groupmode="layer"
     transform="translate(0,64)">
    <g
       transform="matrix(1.0408163,0,0,0.6302428,-1.5714272,-20.309783)"
       id="g2478">
      <rect
         width="83.299995"
         height="9.5201406"
         x="21.349998"
         y="113.14653"
         id="rect2879"
         style="opacity:0.3;fill:url(#linearGradient2483);fill-opacity:1;fill-rule:nonzero;stroke:none;stroke-width:1;marker:none;visibility:visible;display:inline;overflow:visible" />
      <path
         d="m 21.35,113.14694 c 0,0 0,9.51962 0,9.51962 -3.040314,0.0179 -7.35,-2.13287 -7.35,-4.76043 0,-2.62755 3.392762,-4.75919 7.35,-4.75919 z"
         id="path2881"
         style="opacity:0.3;fill:url(#radialGradient2485);fill-opacity:1;fill-rule:nonzero;stroke:none;stroke-width:1;marker:none;visibility:visible;display:inline;overflow:visible" />
      <path
         d="m 104.64999,113.14694 c 0,0 0,9.51962 0,9.51962 3.04032,0.0179 7.35001,-2.13287 7.35001,-4.76043 0,-2.62755 -3.39277,-4.75919 -7.35001,-4.75919 z"
         id="path2883"
         style="opacity:0.3;fill:url(#radialGradient3097);fill-opacity:1;fill-rule:nonzero;stroke:none;stroke-width:1;marker:none;visibility:visible;display:inline;overflow:visible" />
    </g>
    <path
       d="m 17.49996,-62.500039 c 21.31104,0 42.622078,0 63.933119,0 3.738416,1.261986 23.822451,15.639336 29.066961,25.594247 0,30.468614 0,60.937223 0,91.405832 -31.000026,0 -62.000051,0 -93.00008,0 0,-39.000024 0,-78.000053 0,-117.000079 z"
       id="path4160"
       style="fill:url(#linearGradient2465);fill-opacity:1;stroke:url(#linearGradient2467);stroke-width:0.99992192;stroke-linecap:butt;stroke-linejoin:round;stroke-miterlimit:4;stroke-opacity:1;stroke-dasharray:none;stroke-dashoffset:0;display:inline" />
    <path
       d="m 18.978722,54 c -0.539274,0 -0.978723,-0.47303 -0.978723,-1.05352 l 0,-113.779604 c 0,-0.581538 0.439449,-1.053513 0.978723,-1.053513 20.248368,0.291202 42.687148,-0.435596 62.910911,0.07251 L 109.71323,-37.911853 110,52.94648 C 110,53.52697 109.56154,54 109.02128,54 l -90.042557,0 z"
       id="path4191"
       style="fill:url(#radialGradient2462);fill-opacity:1" />
    <path
       d="m 109.50003,-37.482066 c 0,29.94778 0,61.034321 0,90.982106 -30.333353,0 -60.666712,0 -91.000071,0 0,-38.333365 0,-76.666722 0,-115.000079 20.852738,0 42.202797,0 63.055536,0"
       id="path2435"
       style="opacity:0.6;fill:none;stroke:url(#linearGradient2459);stroke-width:0.99992174;stroke-linecap:butt;stroke-linejoin:round;stroke-miterlimit:4;stroke-opacity:1;stroke-dasharray:none;stroke-dashoffset:0;display:inline" />
    <path
       d="m 71.923062,-62.160763 c 13.028319,0 6.550632,25.807565 6.550632,25.807565 0,0 31.510096,-7.189527 31.510096,5.562422 0,0 0.0719,-6.058359 0.0719,-6.058359 -6.73094,-6.730976 -20.99504,-19.900117 -30.17436,-24.913178 0,0 -7.958268,-0.39845 -7.958268,-0.39845 l 0,0 z"
       id="path3232"
       style="opacity:0.05;fill:#000000;fill-opacity:1;fill-rule:evenodd;stroke:none;display:inline"
       sodipodi:nodetypes="cccsscc" />
    <path
       d="m 74.395876,-62.160763 c 12.181867,0 6.125037,24.130841 6.125037,24.130841 0,0 29.462877,-5.640524 29.462877,6.140541 1.56028,-10.051621 -25.986919,-33.399392 -35.587914,-30.271382 l 0,0 z"
       id="path3230"
       style="opacity:0.1;fill:#000000;fill-opacity:1;fill-rule:evenodd;stroke:none;display:inline"
       sodipodi:nodetypes="ccccc" />
    <path
       d="m 82.363409,-39.538973 c 0,0 27.620381,-4.806258 27.620381,7.516652 0,-6.959262 -15.550874,-26.425199 -33.362381,-30.138442 8.65892,3.314503 7.482419,14.418727 5.742,22.62179 z"
       id="path12038"
       style="opacity:0.15;fill:#000000;fill-opacity:1;fill-rule:evenodd;stroke:none;display:inline"
       sodipodi:nodetypes="cscc" />
    <path
       d="m 76.62141,-62.160763 c 8.497314,0 6.228693,20.431676 6.228693,20.431676 0,0 27.133687,-2.616144 27.133687,9.706766 0,-3.002504 0.2291,-5.152653 -0.35674,-6.089581 -4.20883,-6.731143 -22.388043,-21.835734 -28.9528,-23.815436 -0.491259,-0.148145 -1.580544,-0.233425 -4.05284,-0.233425 z"
       id="path4474"
       style="fill:url(#linearGradient2455);fill-opacity:1;fill-rule:evenodd;stroke:none;display:inline" />
    <rect
       style="opacity:0.6;color:#000000;fill:#ffffff;fill-opacity:1;fill-rule:evenodd;stroke:none;stroke-width:3;marker:none;visibility:visible;display:inline;overflow:visible;enable-background:accumulate"
       id="rect2888-1"
       width="4.716588"
       height="39.661259"
       x="64.106796"
       y="-17.150814"
       transform="matrix(1,0,-0.36013482,0.93290027,0,0)" />
    <path
       style="opacity:0.6;fill:#ffffff;fill-opacity:1;stroke:none"
       d="m 94.939184,1.607997 -11.16891,-15.456 3.722962,-5.151998 L 102,1.607997 87.108106,22.999999 83,18.295999 94.939184,1.607997 z"
       id="path2882-04-0" />
    <path
       style="opacity:0.6;fill:#ffffff;fill-opacity:1;stroke:none"
       d="m 33.060812,1.607997 11.168915,-15.456 -3.722964,-5.151998 L 26,1.607997 40.891893,22.999999 45,18.295999 33.060812,1.607997 z"
       id="path2882-3" />
    <path
       style="opacity:0.4;fill:#666666;fill-opacity:1;stroke:none"
       d="M 33.060812,0.607998 44.229727,-14.848003 40.506763,-20.000001 26,0.607998 40.891893,21.999999 45,17.295999 33.060812,0.607998 z"
       id="path2882" />
    <rect
       style="opacity:0.4;color:#000000;fill:#000000;fill-opacity:1;fill-rule:evenodd;stroke:none;stroke-width:3;marker:none;visibility:visible;display:inline;overflow:visible;enable-background:accumulate"
       id="rect2888"
       width="4.716588"
       height="39.661259"
       x="63.720768"
       y="-18.222744"
       transform="matrix(1,0,-0.36013482,0.93290027,0,0)" />
    <path
       style="opacity:0.4;fill:#666666;fill-opacity:1;stroke:none"
       d="M 94.939184,0.607998 83.770274,-14.848003 87.493236,-20.000001 102,0.607998 87.108106,21.999999 83,17.295999 94.939184,0.607998 z"
       id="path2882-04" />
  </g>
</svg>

<?xml version="1.0" encoding="UTF-8" standalone="no"?>
<!-- Created with Inkscape (http://www.inkscape.org/) -->
<svg id="svg3099" xmlns:rdf="http://www.w3.org/1999/02/22-rdf-syntax-ns#" xmlns="http://www.w3.org/2000/svg" height="128" width="128" version="1.1" xmlns:cc="http://creativecommons.org/ns#" xmlns:xlink="http://www.w3.org/1999/xlink" xmlns:dc="http://purl.org/dc/elements/1.1/">
 <defs id="defs3101">
  <linearGradient id="linearGradient2455" y2="5.4565" gradientUnits="userSpaceOnUse" x2="36.358" gradientTransform="matrix(2.6605 0 0 2.7752 .74553 -67.566)" y1="8.059" x1="32.892">
   <stop id="stop8591" style="stop-color:#fefefe" offset="0"/>
   <stop id="stop8593" style="stop-color:#cbcbcb" offset="1"/>
  </linearGradient>
  <linearGradient id="linearGradient2459" y2="46.017" gradientUnits="userSpaceOnUse" x2="24" gradientTransform="matrix(2.7576 0 0 2.6744 -2.1817 -68.186)" y1="2" x1="24">
   <stop id="stop3213" style="stop-color:#fff" offset="0"/>
   <stop id="stop3215" style="stop-color:#fff;stop-opacity:0" offset="1"/>
  </linearGradient>
  <radialGradient id="radialGradient2462" gradientUnits="userSpaceOnUse" cy="112.3" cx="102" gradientTransform="matrix(.97872 0 0 -1.0535 1.3617 63.482)" r="139.56">
   <stop id="stop41" style="stop-color:#b7b8b9" offset="0"/>
   <stop id="stop47" style="stop-color:#ececec" offset=".18851"/>
   <stop id="stop49" style="stop-color:#fafafa;stop-opacity:0" offset=".25718"/>
   <stop id="stop51" style="stop-color:#fff;stop-opacity:0" offset=".30111"/>
   <stop id="stop53" style="stop-color:#fafafa;stop-opacity:0" offset=".53130"/>
   <stop id="stop55" style="stop-color:#ebecec;stop-opacity:0" offset=".84490"/>
   <stop id="stop57" style="stop-color:#e1e2e3;stop-opacity:0" offset="1"/>
  </radialGradient>
  <linearGradient id="linearGradient2465" y2="47.013" gradientUnits="userSpaceOnUse" x2="25.132" gradientTransform="matrix(2.6571 0 0 2.5422 .22866 -68.913)" y1=".98521" x1="25.132">
   <stop id="stop3602" style="stop-color:#f4f4f4" offset="0"/>
   <stop id="stop3604" style="stop-color:#dbdbdb" offset="1"/>
  </linearGradient>
  <linearGradient id="linearGradient2467" y2="2.9062" gradientUnits="userSpaceOnUse" x2="-51.786" gradientTransform="matrix(2.1456 0 0 2.3791 158.09 -71.747)" y1="50.786" x1="-51.786">
   <stop id="stop3106" style="stop-color:#aaa" offset="0"/>
   <stop id="stop3108" style="stop-color:#c8c8c8" offset="1"/>
  </linearGradient>
  <linearGradient id="linearGradient2483" y2="609.51" gradientUnits="userSpaceOnUse" x2="302.86" gradientTransform="matrix(.17251 0 0 .039201 .64822 98.774)" y1="366.65" x1="302.86">
   <stop id="stop5050" style="stop-opacity:0" offset="0"/>
   <stop id="stop5056" offset=".5"/>
   <stop id="stop5052" style="stop-opacity:0" offset="1"/>
  </linearGradient>
  <radialGradient id="radialGradient2485" xlink:href="#linearGradient5060" gradientUnits="userSpaceOnUse" cy="486.65" cx="605.71" gradientTransform="matrix(-.059038 0 0 .039201 56.93 98.774)" r="117.14"/>
  <linearGradient id="linearGradient5060">
   <stop id="stop5062" offset="0"/>
   <stop id="stop5064" style="stop-opacity:0" offset="1"/>
  </linearGradient>
  <radialGradient id="radialGradient3097" gradientUnits="userSpaceOnUse" xlink:href="#linearGradient5060" cx="605.71" cy="486.65" r="117.14" gradientTransform="matrix(.059038 0 0 .039201 69.07 98.774)"/>
 </defs>
 <metadata id="metadata3104">
  <rdf:RDF>
   <cc:Work rdf:about="">
    <dc:format>image/svg+xml</dc:format>
    <dc:type rdf:resource="http://purl.org/dc/dcmitype/StillImage"/>
    <dc:title/>
   </cc:Work>
  </rdf:RDF>
 </metadata>
 <g id="layer1" transform="translate(0,64)">
  <g id="g2478" transform="matrix(1.0408 0 0 .63024 -1.5714 -20.31)">
   <rect id="rect2879" style="opacity:.3;fill:url(#linearGradient2483)" height="9.5201" width="83.3" y="113.15" x="21.35"/>
   <path id="path2881" style="opacity:.3;fill:url(#radialGradient2485)" d="m21.35 113.15v9.5196c-3.0403 0.0179-7.35-2.1329-7.35-4.7604 0-2.6276 3.3928-4.7592 7.35-4.7592z"/>
   <path id="path2883" style="opacity:.3;fill:url(#radialGradient3097)" d="m104.65 113.15v9.5196c3.0403 0.0179 7.35-2.1329 7.35-4.7604 0-2.6276-3.3928-4.7592-7.35-4.7592z"/>
  </g>
  <path id="path4160" style="stroke-linejoin:round;stroke:url(#linearGradient2467);stroke-width:.99992;fill:url(#linearGradient2465)" d="m17.5-62.5h63.933c3.7384 1.262 23.822 15.639 29.067 25.594v91.406h-93v-117z"/>
  <path id="path4191" style="fill:url(#radialGradient2462)" d="m18.979 54c-0.53927 0-0.97872-0.47303-0.97872-1.0535v-113.78c0-0.58154 0.43945-1.0535 0.97872-1.0535 20.248 0.2912 42.687-0.4356 62.911 0.07251l27.82 23.903 0.29 90.858c0 0.581-0.44 1.054-0.98 1.054h-90.043z"/>
  <path id="path2435" style="opacity:.6;stroke-linejoin:round;stroke:url(#linearGradient2459);stroke-width:.99992;fill:none" d="m109.5-37.482v90.982h-91v-115h63.056"/>
  <path id="path3232" style="opacity:.05;fill-rule:evenodd" d="m71.923-62.161c13.028 0 6.5506 25.808 6.5506 25.808s31.51-7.1895 31.51 5.5624l0.0719-6.0584c-6.7309-6.731-20.995-19.9-30.174-24.913l-7.9583-0.39845z"/>
  <path id="path3230" style="opacity:.1;fill-rule:evenodd" d="m74.396-62.161c12.182 0 6.125 24.131 6.125 24.131s29.463-5.6405 29.463 6.1405c1.5603-10.052-25.987-33.399-35.588-30.271z"/>
  <path id="path12038" style="opacity:.15;fill-rule:evenodd" d="m82.363-39.539s27.62-4.8063 27.62 7.5167c0-6.9593-15.551-26.425-33.362-30.138 8.6589 3.3145 7.4824 14.419 5.742 22.622z"/>
  <path id="path4474" style="fill:url(#linearGradient2455);fill-rule:evenodd" d="m76.621-62.161c8.4973 0 6.2287 20.432 6.2287 20.432s27.134-2.6161 27.134 9.7068c0-3.0025 0.2291-5.1527-0.35674-6.0896-4.2088-6.7311-22.388-21.836-28.953-23.815-0.49126-0.14814-1.5805-0.23342-4.0528-0.23342z"/>
  <rect id="rect2888-1" style="opacity:.6;color:#000000;fill-rule:evenodd;fill:#fff" transform="matrix(1 0 -.36013 .93290 0 0)" height="39.661" width="4.7166" y="-17.151" x="64.107"/>
  <path id="path2882-04-0" style="opacity:.6;fill:#fff" d="m94.939 1.608-11.169-15.456 3.723-5.152l14.507 20.608-14.892 21.392-4.108-4.704 11.939-16.688z"/>
  <path id="path2882-3" style="opacity:.6;fill:#fff" d="m33.061 1.608 11.169-15.456-3.723-5.152l-14.507 20.608 14.892 21.392 4.108-4.704-11.939-16.688z"/>
  <path id="path2882" style="opacity:.4;fill:#666" d="m33.061 0.608 11.169-15.456-3.723-5.152-14.507 20.608 14.892 21.392 4.108-4.704-11.939-16.688z"/>
  <rect id="rect2888" style="opacity:.4;color:#000000;fill-rule:evenodd" transform="matrix(1 0 -.36013 .93290 0 0)" height="39.661" width="4.7166" y="-18.223" x="63.721"/>
  <path id="path2882-04" style="opacity:.4;fill:#666" d="m94.939 0.608-11.169-15.456 3.723-5.152 14.507 20.608-14.892 21.392-4.108-4.704 11.939-16.688z"/>
 </g>
</svg>
